!!!COM: Palestrina, Giovanni Perluigi da
!!!OPR: Missa Io mi son giovinetta (1570)
!!!OMD: Credo
!!!OTL: Et in Spiritum
**kern	**kern	**kern	**kern
*Ibass	*Itenor	*Icalto	*Icant
!Bassus	!Tenor	!Altus	!Cantus
*clefF4	*clefGv2	*clefG2	*clefG2
*k[b-]	*k[b-]	*k[b-]	*k[b-]
*G:dor	*G:dor	*G:dor	*G:dor
*M4/2	*M4/2	*M4/2	*M4/2
=164	=164	=164	=164
1.G	1r	0r	0r
.	[1d	.	.
2F	.	.	.
=165	=165	=165	=165
2G	2d]	0r	0r
2A	2c	.	.
2B-	2d	.	.
[2A	2e	.	.
=166	=166	=166	=166
2A]	2f	0r	0r
2G	1e	.	.
2A	.	.	.
2B-	2d	.	.
=167	=167	=167	=167
2c	2e	0r	0r
1B-	2f	.	.
.	2g	.	.
2A	[2f	.	.
=168	=168	=168	=168
2B-	2f]	0r	0r
2c	2e	.	.
2d	2f	.	.
2c	2g	.	.
=169	=169	=169	=169
2A	2a	0r	0r
2B-	2.g	.	.
1A	.	.	.
.	4e	.	.
.	2f#	.	.
=170	=170	=170	=170
2G	2g	2r	2r
1G	1d	1g	1b-
2G	2d	2g	2b-
=171	=171	=171	=171
1C	1e-	1g	1cc
1D	2d	2f#	2a
.	2d	2f#	2dd
=172	=172	=172	=172
0r	2e-	2g	2b-
.	2c	2a	2cc
.	4B-	[1b-	[1dd
.	4c	.	.
.	4d	.	.
.	4e-	.	.
=173	=173	=173	=173
2r	2.f	2b-]	2dd]
2F	.	2a	2cc
.	4e-	.	.
2G	2d	2g	2b-
2A	2c	2f#	[2a
=174	=174	=174	=174
2B-	2d	1g	4a]
.	.	.	4g
2c	1e-	.	1g
1A	.	2c	.
.	4d	[2cc	2f#
.	4c	.	.
=175	=175	=175	=175
2G	1d	2cc]	0g
1G	.	4b-	.
.	.	4a	.
.	2r	2.b-	.
2G	[2d	.	.
.	.	4a	.
=176	=176	=176	=176
1B-	2d]	2f	0r
.	2d	2g	.
2A	1f	1a	.
2F	.	.	.
=177	=177	=177	=177
2A	2e	1r	0r
2A	2c	.	.
[1G	2e	2r	.
.	2e	[2g	.
=178	=178	=178	=178
0G]	2d	2g]	2r
.	2.G	2g	1dd
.	.	1b-	.
.	4A	.	.
.	4B-	.	2dd
.	4c	.	.
=179	=179	=179	=179
0r	1d	2a	1ff
.	.	2f	.
.	2.A	2a	2ee
.	.	2a	2cc
.	4B-	.	.
=180	=180	=180	=180
0r	1c	2g	2ee
.	.	1g	2ee
.	1r	.	1dd
.	.	2f	.
=181	=181	=181	=181
0r	0r	2b-	2r
.	.	2g	1dd
.	.	1a	.
.	.	.	2cc
=182	=182	=182	=182
0r	2r	4d	2ff
.	.	4e	.
.	1d	4f	2dd
.	.	4g	.
.	.	[1a	2ff
.	2c	.	[2ee
=183	=183	=183	=183
0r	2f	1a]	4ee]
.	.	.	4dd
.	2d	.	1dd
.	1e	2r	.
.	.	2g	2cc
=184	=184	=184	=184
1r	0d	2g	2b-
.	.	2f	2a
1G	.	2b-	4g
.	.	.	4a
.	.	2g	4b-
.	.	.	4cc
=185	=185	=185	=185
2G	1r	2b-	0dd
2F	.	4a	.
.	.	4g	.
2B-	2r	2f	.
2G	2d	2g	.
=186	=186	=186	=186
1A	2d	2e	1r
.	2c	2a	.
2D	2f	2a	2r
2d	2d	2f	2dd
=187	=187	=187	=187
2B-	2f	2b-	2dd
2c	2.e	2g	2cc
2d	.	1b-	2ff
.	4d	.	.
2G	[2d	.	2dd
=188	=188	=188	=188
1A	2d]	2.a	2ff
.	2c#	.	2.ee
.	.	4g	.
1D	1d	2f	.
.	.	.	4dd
.	.	4e	[2dd
.	.	4d	.
=189	=189	=189	=189
1r	1A	1e	2dd]
.	.	.	2cc#
2r	2r	1d	2dd
[2BB-	[2f	.	[2dd
=190	=190	=190	=190
2BB-]	2f]	2.d	2dd]
2BB-	2f	.	2dd
.	.	4d	.
1C	2.e	2.g	2.cc
.	4d	4f	4b-
=191	=191	=191	=191
1C	2c	2e	2a
.	2B-	2e	2g
2D	2A	2d	2f
2BB-	2d	2f	2b-
=192	=192	=192	=192
2C	4c	2e-	2a
.	4B-	.	.
2E-	4A	2c	1g
.	4G	.	.
1D	1A	1d	.
.	.	.	2f#
=193	=193	=193	=193
1G	1G	[0d	4g
.	.	.	4a
.	.	.	4b-
.	.	.	4cc
2r	2r	.	1dd
2G	2G	.	.
=194	=194	=194	=194
2F#	2A	1d]	0r
2G	2B-	.	.
1E-	1c	1r	.
=195	=195	=195	=195
1D	1d	2r	2r
.	.	2d	2dd
1r	1r	2e	2cc#
.	.	2f	2dd
=196	=196	=196	=196
1G	2r	1g	1b-
.	2d	.	.
[1d	2e	2.f	2a
.	4f	.	[2ff
.	4g	4e	.
=197	=197	=197	=197
2d]	1a	2d	2ff]
2c	.	2e	2ee
2B-	2d	2f	2dd
2B-	2d	2g	2dd
=198	=198	=198	=198
2A	1e	2a	1cc#
2A	.	2a	.
2B-	1r	2g	1r
2c	.	2a	.
=199	=199	=199	=199
2d	0r	2.f	2r
2d	.	.	2dd
.	.	4f	.
2A	.	2e	2cc#
2B-	.	[2d	2dd
=200	=200	=200	=200
2G	1r	2d]	2.b-
2G	.	2g	.
.	.	.	4b-
1D	1d	2.f	1a
.	.	8e	.
.	.	8d	.
=201	=201	=201	=201
0r	2c#	2e	2r
.	2d	2f	2.ff
.	2B-	4d	.
.	.	4e	4ee
.	2B-	4f	[2dd
.	.	4d	.
=202	=202	=202	=202
1r	2A	1e	2dd]
.	2A	.	2cc#
2r	2.B-	2d	2dd
2G	.	2g	2b-
.	4c	.	.
=203	=203	=203	=203
2G	2d	2g	2b-
2G	2d	2g	2b-
2D	2d	2.f	[1a
2d	2d	.	.
.	.	4d	.
=204	=204	=204	=204
2c	2A	2e	1a]
2A	2a	2f	.
2.c	2g	1e	1r
.	2e	.	.
4B-	.	.	.
=205	=205	=205	=205
2A	2f	0r	2r
2G	1g	.	2dd
1A	.	.	2cc
.	2f#	.	2a
=206	=206	=206	=206
1G	1g	2r	2.b-
.	.	2g	.
.	.	.	4cc
1r	1d	2f	4dd
.	.	.	4ee
.	.	2d	[2ff
=207	=207	=207	=207
1r	1r	2f	4ff]
.	.	.	4ee
.	.	2g	1dd
2r	2r	1e	.
2A	2a	.	2cc#
=208	=208	=208	=208
2B-	2g	1d	1dd
1d	1f	.	.
.	.	1r	[1a
2c#	2e	.	.
=209	=209	=209	=209
1d	1f	0r	0a]
1A	2d	.	.
.	[2a	.	.
=210	=210	=210	=210
1B-	2a]	1d	2r
.	2g	.	2dd
2A	2a	2e	2cc
2G	2d	[2g	[2b-
=211	=211	=211	=211
1d	1r	2g]	2b-]
.	.	2f#	2a
1G	2r	1g	1b-
.	[2g	.	.
=212	=212	=212	=212
2r	4g]	1d	2a
.	4f	.	.
1d	2f	.	1ff
.	2d	2r	.
2c	2e	[2a	[2ee
=213	=213	=213	=213
1B-	2f	2a]	4ee]
.	.	.	4dd
.	4e	2g	1dd
.	4d	.	.
1A	1e	1a	.
.	.	.	2cc#
=214	=214	=214	=214
1D	1d	1f#	1dd
[1G	1r	[1g	[1b-
=215	=215	=215	=215
1G]	0d	1g]	1b-]
1B-	.	1f	1dd
=216	=216	=216	=216
1c	1g	1e	1cc
1d	1f	2d	1a
.	.	[2a	.
=217	=217	=217	=217
1A	1e	2a]	2r
.	.	2a	1cc
1c	2r	2.g	.
.	[2g	.	2ee-
.	.	4a	.
=218	=218	=218	=218
2.G	4g]	1b-	2dd
.	4g	.	.
.	2g	.	2b-
4A	.	.	.
1B-	2d	2f	2.dd
.	[2f	2b-	.
.	.	.	4ee-
=219	=219	=219	=219
2F	4f]	2a	2.ff
.	4e-	.	.
1B-	4d	2b-	.
.	4c	.	4ee-
.	2B-	2a	2dd
2A	2c	2f	[2cc
=220	=220	=220	=220
2G	2d	1g	4cc]
.	.	.	4b-
2E-	2e-	.	1b-
1F	1c	1f	.
.	.	.	2a
=221	=221	=221	=221
2r	2B-	2r	2b-
2BB-	2B-	2f	2dd
1BB-	1B-	1f	1dd
=222	=222	=222	=222
2F	2A	2f	2cc
2BB-	2d	2f	2b-
1C	1c	1e	2a
.	.	.	2g
=223	=223	=223	=223
1D	2A	2d	2f
.	2d	2f	2.a
2.A	2c	2e	.
.	.	.	4b-
.	2f	2a	[2cc
4B-	.	.	.
=224	=224	=224	=224
2c	2e	2g	2cc]
2G	1d	2f	2b-
1A	.	1f	1a
.	2c#	.	.
=225	=225	=225	=225
0D	0d	2d	1a
.	.	2a	.
.	.	1a	2r
.	.	.	2dd
=226	=226	=226	=226
0r	0r	2g	1dd
.	.	2f	.
.	.	2e	2cc
.	.	2d	2b-
=227	=227	=227	=227
1r	0r	4c	2a
.	.	4d	.
.	.	4e	2g
.	.	4c	.
2r	.	2.d	1f
2d	.	.	.
.	.	4e	.
=228	=228	=228	=228
1d	0r	1f	2.a
.	.	.	4b-
2c	.	2e	2cc
2B-	.	2d	4f
.	.	.	4g
=229	=229	=229	=229
2A	0r	2c	4a
.	.	.	4f
2G	.	2B-	1b-
1F	.	1c	.
.	.	.	2a
=230	=230	=230	=230
2r	2r	2B-	2b-
2BB-	2f	2b-	2dd
1BB-	1f	1b-	1dd
=231	=231	=231	=231
2F	2f	2a	2cc
2BB-	2d	2f	2b-
1C	1c	1e	2a
.	.	.	2g
=232	=232	=232	=232
1.D	2A	1d	2.f
.	2.f	.	.
.	.	.	4g
.	.	1f	2a
.	4e	.	.
2BB-	2d	.	2b-
=233	=233	=233	=233
2C	4c	2e-	4a
.	4B-	.	4g
2E-	4A	2c	1g
.	4G	.	.
1D	1A	1d	.
.	.	.	2f#
=234	=234	=234	=234
0G	0G	0d	0g
==	==	==	==
*-	*-	*-	*-
!!!CDT: 1525/^1526/-1594/2/2
!!!OCY: Italia
!!!AGN: Mass (Parody)
!!!AST: renaissance, vocal
!!!ASW: Madrigal 1542 (Ferabosco)
!!!PWK: Masses, Book 3
!!!RNB: Cadence finals: A
!!!YOR: Le Opere Complete, v. 6, p. 30
!!!YOO: Rome, Italy: Fratelli Scalera
!!!END: 1992//
!!!EED: John Miller
!!!YEC: Copyright 2000, John Miller
!!!YEN: United States of America
!!!YEM: Rights to all derivative electronic formats reserved.
!!!YEM: Refer to licensing agreement for further details.
!!!YEM: This file must be accompanied by the licensing agreement.
!!!YEM: A copy of the licensing agreement may be found at http://www.music-cog.ohio-state.edu/HumdrumDatabases/Palestrina/license.txt
!!!EMD: converted to Humdrum by Bret Aarden
